X:1
T:Missa in honorem Sanctissimae Trinitatis
T:op. 1 1 7
T:Missale Romanum
T:Josef Gabriel Rheinberger 
T:Missa brevis in F
T:.
T:Missa in honorem Sanctissimae Trinitatis op. 1 1 7
C:Joseph Gabriel Rheinberger
C:(1 839-1 901 )
%%score [ 1 2 3 4 ]
L:1/8
Q:1/4=80
M:4/2
K:F
V:1 treble nm="Sopran"
V:2 treble nm="Alt"
V:3 treble-8 nm="Tenor"
V:4 bass nm="Bass"
V:1
"^Kyrie" z16[Q:1/2=69]"^Andante" | z16 | z4!<(! (C4 D4 G4!<)!!p!!p! | %3
w: ||Ky
- * *|
!>(! F2) E2!>)! !fermata!!stemless!E12 | z4 (F4 A4 c4!f! | B2) A2 !stemless!A8 f4 | %6
w: * ri- e,|Ky- * *|* ri- e e-|
 (e4 d2 c2 !stemless!d8) | !stemless!c12 (B2 A2) | G4 A4 (!>!!stemless!B8- | B4 A4 d4) (c2 =B2) | %10
w: lei- * * *|son, e- *|lei- son, 
Ky-|* * * ri- *|
 c6 d2 (!stemless!e8 | !stemless!f8- f2 e2 d2 ^c2 | d6 =c2) !stemless!=B8 | %13
w: e e- lei-||* * son,|
 (!>!!stemless!e8- e2 d2) (c2 =B2) | !stemless!c12 _B4 | (A4 !stemless!d8 =B4) | !stemless!c12 z4 | %17
w: Ky- * * ri- *|e e-|lei- * *|son.|
!p! !stemless!A8 G4 F4 | (!stemless!B12 A2 G2) | A4!<(! A4 G4 F4!<)! |!f! (d4 !stemless!f8 e2 d2) | %21
w: Chri
- ste e-|lei- * *|son, Chri- ste e-|lei- * * *|
 c4 c4 B4 A4!p! | (G2 A2) !stemless!B8!<(! (A2 G2)!<)! |!f! (d6 _e2 c6 d2) | !stemless!B8 z4 B4 | %25
w: son, Chri
- ste e-|lei- * son, e- *|lei- * * *|son,~e- *|
 (B4 d4 c4 f4) | !stemless!f8 z8 | z16 | z4!>(! (B6 A2) (G2 F2)!>)! | E4 G4 (F4 A4) | %30
w: lei- * * *|son.||Ky
- * ri- *|e~e- * lei- *|
 !stemless!c16 | z16 | z16 | z16 | z4 (B4 d4 g4!f! | f2) e2 !fermata!e4 z4 E4!p! | %36
w: son,||||Ky- * *|* ri- e, e-|
 F4 !stemless!A8 (D2 E2) | F4 !stemless!A8!<(! (F2 G2)!<)! |!f! (A4 c4) B4 A4 | %39
w: lei- son, e- *|lei- son, e- *|lei- * son, e-|
 (!stemless!G12 A4) | F4 !stemless!F8 (D2 E2)!p! | F4 !stemless!F8 (A2 G2) | %42
w: lei- *|son, Ky
- ri- *|e, Ky- ri- *|
 F4 z4 (!stemless!f8!f! | _e4) d4 c4 (!>!B4- | B4 c2 B2) (A4 G4) | !fermata!!stemless!A16 |] %46
w: e, Ky-|* ri- * e~e-|* * * lei- *|son.|
[M:3/2]"^Gloria"!f! (F4 A6) c2[Q:1/2=92]"^Con moto" | c4 G4 A4 | (B4 c4) d4 | !stemless!c12 | %50
w: Glo- * ri-|a in~ex- *|cel- * sis|De-|
 !stemless!A12 | z4 A4 G4!p! | G4 F4 A4- |"^cresc." A4 B4 A4 | A4 G4 B4- | B4 B4 d4!f! | %56
w: o|et in|ter- ra~ pax,|_ pax ho-|mi- ni- bus|_ bo- nae|
 !stemless!c8 c4 | !stemless!f12 | !stemless!e8 z4 | z12 | z4 c6 c2!p! | c4 (=B2 A2) ^G4 | %62
w: vo- lun-|ta-|tis;||be- ne-|di- ci- * mus|
 !stemless!A8 z4 | z12 | z2 A2 c4 e4!f! | (f4 d6) e2 | c4 c6 c2!p! | c4 B4 A4 |!<(! B4 c4 d4!<)! | %69
w: te,||glo- ri- fi-|ca- * mus|te, gra- ti-|as a- gi-|mus ti- bi|
!>(! !stemless!_e8 d4!>)! | (d6 c2) B4 |!<(! A4 B4 c4!<)! | (G4!>(! B6 A2)!>)! | G4 B6 B2!pp! | %74
w: pro- pter|mag- nam *|glo- ri- am|tu- * *|am. Rex
 coe|
 (B4 _A4) G4 |!<(! (c4 G4) _A4!<)! |!f! _d4 d4 d4 | _d6 c2 c4 |!p! c4 B4 _A4 | %79
w: le- * stis,|De- * us|Pa- ter om-|ni- po- tens,|Do- mi- ne|
!<(! (G2 _A2) G4!<)!!f! c2 c2 |[K:F] c4 _d2 c2 B2 _A2 | _A4 G4 z4 | z12 | z12 | z12 | z12 | %86
w: Fi- * li u- ni-|ge- ni- te Je- su|Chri- ste,|||||
 z4 A6 A2!p! | G4 (F6 G2) |!<(! A2 A2 c4!<)!!>(! B2 A2 | G2!>)! F2 (A6 G2 | F4) E4 z4 | %91
w: Fi- li-|us Pa
- *|tris, qui to- lis pec-|ca- ta mun- *|* di,|
!<(! !stemless!A8 B4!<)! | c4 c4 c4!f! | c2 d2 _e4 d4 | d4 c4!ff! c4 | f4 f4 _e4 | d6 c2 B4 | %97
w: su- sci-|pe de~pre- *|ca- ti- o- nem|no- stram, qui|se- des ad|dex- te- ram|
 (c4 G4 A4) | B4 B4 d4 | !stemless!f8 _e4 | (d6 c2) B4 | !>!c4 !>!G4 A4 | (B4 F4) G4 | %103
w: Pa
- * *|tris, quo~ni- *|am tu|so- * lus|San
- ctus, tu|so- * lus|
 A3 A A4 ^F4 | (G2 A2) B4 A4 | A3 ^G G4 (!>!f4-!f! | f4 e4) d4 | !stemless!d12 | !stemless!^c8 z4 | %109
w: Do- mi- nus, tu|so- * lus Al
-|tis- si- mus, Je-|* * su|Chri-|ste.|
"A"!f!!f! D4 F6 A2 | A3 E E4 z2 E2 | F4 A6 c2 | (c4 G4) A4 | (B4 c4) d4 | (c4 g2 e2 c2 B2) | %115
w: Cum
 San- cto|Spi- ri~tu- * in|glo- ri- a|De
- * i|Pa- * tris,|a- * * * *|
 !stemless!A8 A4 | A6 A2 A4 | (B4 c4) d4 | !stemless!c8 (F2 G2) | (A4 G2 F2 G4) | F4 f4 e4!f! | %121
w: men, in|glo- ri- a|De
- * i|Pa- tris, _|a- * * *|men, a- men,|
 !stemless!d12 | c4 B4 A4!p! | !stemless!G12 | F4!<(! A4 F4!<)! |"^rit." (!stemless!d8 c4!f! | %126
w: a-|men, a- men,|a-|men, a- men,|a- *|
 B4 F4 G4) | !fermata!!stemless!A12 |][M:4/2]"^Credo"!f![Q:1/2=80]"^Moderato" !stemless!D8 F4 A4 | %129
w: |men.|Cre- do ~in|
 (B4 A4 F4) D4 | !stemless!d12 e4 | !stemless!^c12 z4 |!p!!p! D4 D2 D2 D4 D4 | D4 D4 z4 (D2 F2) | %134
w: u- * * num|De- *|um,|Pa- trem om- ni- po-|ten- tem, fac- *|
!<(! A4!<)! A4 G4!>(! F2 F2!>)! | F4 E4 A6 A2!mf! | B3 B B4 A2 A2 A2 A2 | B3 B B4 B4 A4!f! | %138
w: to- rem coe- li et|ter- rae, vi- si-|bi- li- um et in- vi- si-|bi- li- um, et in|
 (A2 f2) (e2 d2) c3 B A4 | !>!B4 (F2 G2) A4 E4 | z16 | ^c4 d4 c3 A A4 | z4 A2 A2 A4 G4!p! | %143
w: u- * num _ Do
- mi- num|Je- sum _ Chri- stum,||u- ni- ge- ni- tum,|et ex Pa
- ter|
 (F2 E2)!<(! (F2 G2) (A2 B2) (c2 d2)!<)! | c6 B2 A4 !>!B4- | B2 A2 !stemless!G8 z4 | %146
w: na- * tum _ an- * te _|om- ni- a sae-|* cu- la,|
 z4 A4 A6 G2!p! | (F2 E2)!<(! (F2 G2) (A2 B2) c2 d2!<)! | c6 A2 G4 !>!e4-!mf! | %149
w: De
- um de|De- * o, _ lu- * men de|lu- mi- ne, ge-|
 e4 d4 c4!<(! (G2 e2)!<)! |!>(! (e4 d4)!>)! c4 c4-!p! | c4 c4 =B4 A4 | ^G4 (A2 E2) !stemless!E8 | %153
w: * ni- tum non _|fac- * tum con-|* sub- stan- ti-|a- lem _ Pa
-|
 !stemless!E8 z8 | z4 d4 (c2 =B2) A2 ^G2!p! | A3 E E4 z8 | z4 d4 (c2 =B2) A2 ^G2!mf! | %157
w: tri,|qui pro- * pter nos|ho- mi- nes,|de- scen- * dit, de-|
 (A4 =B4) c4 f4!f! | (!stemless!e8 !stemless!d8) | !stemless!c8 z4"^poco meno mosso" E4!pp! | %160
w: scen- * dit de|coe- *|lis. Et
|
 !stemless!E8 !stemless!E8 | F3 F F4 z4 F4 | !stemless!E8 F4 G4 | A4 G4 z4 G2 A2 | %164
w: in- car-|na- tus est de|Spi- ri- tu|San
- cto ex Ma-|
 !stemless!B8 !stemless!B8 | B3 A !stemless!A8 A4 |!<(!!<(! !stemless!c8 !stemless!c8!<)!!<)! | %167
w: ri- a|vir- gi- ne et|ho- mo|
 c3 =B !stemless!B8 B2 e2!f! | (!stemless!e4 ^d8 =d4- | d4 !stemless!f8) e2 e2 | e6 d2 c6 =B2 | %171
w: fa- ctus est, cru- ci-|fix- * *|* * us sub|Pon
- ti- o Pi-|
 .A4 .^G4 z4!pp! (E4 | F4) D4 z8 | z4 (f4-!>(! f2 e2) (c2 A2)!>)! |!pp! !stemless!E8 !stemless!E8 | %175
w: la- to, pas-|* sus,|et _ _ se- *|pul- tus|
 !fermata!!stemless!E8 z8"^A tempo primo" | z16 | z16 | z8 z4 d4!f! | G4 (A2 B2) c4 B2 A2 | %180
w: est.|||se-|det ad _ dex- te- ram|
 _e4 d4 z8 | z8 z4 d4!f! | _e6 e2 d4 d4 | d4 c2 B2 (A2 B2) (c2 f2) | f4 B4 z4 !>!B4 | %185
w: Pa
- tris,|ven-|tu- rus est cum|glo- ri- a ju- * di- *|ca- re vi-|
 !>!A4 !>!G4 !>!F4 !>!E4 | !>!!stemless!_E12 c2 c2 | c4 B2 B2 B4 A4 | .B4 .F4 d6 d2!f! | %189
w: vos et mor- tu-|os, cu- jus|re- gni non e- rit|fi- nis. Et
 in|
 d4 c2 B2 c4 (B2 A2) |[K:F] B3 A !stemless!G8 _e2 d2 | c6 B2 (A4 B2) c2 | d4 B2 G2 F4 E4 | %193
w: Spi- ri- tum San ctum _|Do
- mi- num qui ex|Pa- tre fi- * li-|o- que pro~ce- * dit,|
!f! !stemless!c8 !stemless!B8 | A6 A2 (!stemless!A8 | A4) B2 A2 (G4 d4) | %196
w: qui lo-|cu- tus est|_ per pro~phe- * *|
!>(! !stemless!^c12!>)! A4!p! ||[K:D] A4 A4 A4 A2 A2 | A6 E2 F4 F4!mf! | %199
w: tas. 
Et|u- nam sanc- tam ca-|tho- li- cam et|
 A6!<(! A2 A2 B2 c2 d2!<)! |!>(! e4 G4!>)! F4 z4 | z4 d4 d4 c4!f! | c4 B4 e2 d2 c2 B2 | %203
w: a- po sto- li- cam ec-|cle- si- am,|...u- num bap-|tis- ma in re- mis- si-|
!<(! A6 A2!<)!!>(! B4 G4!>)! | G4 F4 z8 | z8 z4 B2 B2!f! | B4 ^G4 A4 d4 | %207
w: o- nem pec- ca-|to- rum,|re- sur-|re- cti- o- nem|
 (c2 d2) (e2 f2) (=g4 f4) | !stemless!e12 !>!A4 | !>!B4 !>!!stemless!e8 B4 | A4 d8 G4- | %211
w: mor- * tu- * o- *|rum. Et
|vi- tam ven-|tu- ri sae-|
 G4 F2 E2 E8 | D4 z4 (!stemless!B8 |"^rit." !stemless!=c8 B4 d4) | !fermata!!stemless!d16 |] %215
w: * cu- li. A-|men, A-||men.|
[K:F][M:3/2]"^Sanctus" z12[Q:1/2=72]"^Lento" | z12 |!pp! (F4 A4 c4- | c4 G4) B4 | !stemless!A12 | %220
w: ||San- * *||ctus,|
 (B4 c4) d4- | d4!<(! (G4 A4)!<)! |!>(! c4 (B2 A2)!>)! B4 | !stemless!A8 (G2 D2) | F6 E2 E4- | %225
w: San- 
- ctus|_ Do- *|* mi- * nus|De- us _|Sa- ba- oth.|
 E4 z4 z4 | z12 | z12 |!mf!!<(! c4 (F2 A2) (c2 f2)!<)! |!f! (f4 e6 g2) | !stemless!c8 c4 | %231
w: _|||Ple
- ni _ sunt _|coe- * *|li et|
 !stemless!c8 c4 | !>!c4 (F2 A2) (c2 _e2) | d4 B4 f4!ff! | f4 (e2 d2) (c2 B2) | A4 G4 z2 G2!p! | %236
w: ter- ra|glo- ri- * a _|tu- a, glo-|* ri- * a _|tu- a. O
-|
!<(! (!stemless!G8 A4)!<)! |!>(! !stemless!G8 G4!>)!!p! |!<(! (!stemless!G8 f4)!<)! | %239
w: san- *|na, o-|san- *|
 !stemless!e8 z2 !1!G2!f! | (G4 c4 A4 | d4 B4 e4"_cresc." | c4 f4 d4 |!ff! g2 f2 e2 d2 c2 B2) | %244
w: na, o-|san- * *||||
 !stemless!A8 f2 f2 | (!>!f4 !>!e4 !>!d4 | !stemless!e12) | f4!<(! A4 A4!<)!!p! | %248
w: na in ex-|cel- * *||sis, in~ex- *|
!>(! (!stemless!c8!>)! B4 | !stemless!G12- |"^rit." G4 A4 B4) | .!fermata!!stemless!A12 |] %252
w: cel- *|||sis.|
[K:Bb][M:4/2]"^Benedictus"[Q:1/2=69]"^Andante" z8 z4"^dolce" D2 D2!p! | F4 E4 z4!<(! C4!<)! | %254
w: Be
- ne-|di- ctus qui|
!>(! G4!>)! F4 z4 B4 |!<(! E4 F2 G2!<)!!>(! F6 E2!>)! | !stemless!D8 z8 |!f! (!stemless!d8 B4) G4 | %258
w: ve- nit in|no- mi- ne 
Do- mi-|ni,|be- * ne-|
 G4 (^F8 =F4) | (!stemless!=f8 d4) B4 | B4 !stemless!A8 G4 | !stemless!^A8!<(! B4 =B4!<)! | %262
w: di- ctus, _|be- * ne-|dic- tus in|ve- nit~in *|
 (c4 d2 c2) (B2 A2) (G2 F2) | !stemless!A8 !stemless!G8 | !stemless!c8 z8 | z8 B4 B4!f! | %266
w: no- * * mi- * ne _|Do
- mi-|ni,|be- ne-|
 (B4 e2 d2) c6 B2 | (A6 G2) F6 E2 | D2 F2 (B6 A2) B2 c2 | !>!!stemless!c4 ^c8 (c2 d2) | %270
w: di- * * ctus qui|ve- * nit in|no- mi- ne _ Do
- mi-|ni,~qui * ve- *|
 d4 !stemless!=e8 e2 f2 | f4 (!stemless!^f8 g2 _e2 | c4 !stemless!=f8) (d2 B2) | %273
w: nit in no- mi-|ne 
Do- * *|* * mi- *|
 !stemless!c8 z4 c2 c2!p! | _d4 !stemless!_A8 (B2 _G2) | _G4 !stemless!F8 B2 B2!mf! | %276
w: ni, be- ne-|di- ctus qui _|ve- nit, be- ne|
 e4 !stemless!B8 (_c2 _A2) | _A4 !stemless!G8 =c2 c2!f! | (f4 =e4) d4 A4 | c4 B2 B2 A4 G2 G2 | %280
w: di- ctus qui _|ve- nit, be- ne-|di- * ctus qui|ve- nit in no- mi- ne|
"^dim." (G4 !stemless!F8) =E4 | D4 z2 B2 (B2 A2) B2 c2 | (d4 g4) f4 d4 | (B4 G4 F4) (G2 A2) | %284
w: Do
- * mi-|ni, qui ve- * nit in|no- * mi- ne|Do
- * * mi- *|
 !stemless!B12 z2 B2!mf! | d4 !stemless!B8 B2 B2!p! | (!stemless!d8 !stemless!B8 | %287
w: ni. O-|san- na in ex-|cel- *|
!pp! !stemless!G12 F4) | !fermata!!stemless!F16 |] %289
w: |sis.|
[K:F][M:3/2]"^Agnus Dei" z12[Q:1/2=72]"^Andante" | z4 F4"^dolce" A4!p!!p! | c4 d6 d2 | A4 c4 B4 | %293
w: |A
- gnus|De- i qui|tol- lis pec-|
 !stemless!G12 | !stemless!G8 z4 | z12 | z12 | z12 | z12 | z4 f4 f4!f! | e4 !stemless!A8- | %301
w: ca-|ta,|||||mi- se-|re- re,|
 A4 d4 d4 | c4 !stemless!F8- | F4 (B2 A2 G2 F2) | !stemless!E8 (A4!f! | !stemless!B8) A4 | %306
w: _ mi- se-|re- re|_ no- * * *|bis, A
-|* gnus|
 ^c4 d6 d2 | A4 B4 E4 | (E4 G4) F4 | (A4 G4 A4) | !stemless!B8 z4 | z12 | z12 | %313
w: De- i qui|tol- lis pec-|ca- * ta|mun- * *|di,|||
 z4!<(! d4 d4!<)!!p! |!>(! (e4 d4)!>)! G4 |!<(! (A4 =B6 c2)!<)! | c4 z4 z4 | z12 | z12 | %319
w: mi- se-|re- * re|no- * *|bis,|||
 z4 e4 e4!mf! | (f4 e4) A4 | z4 !stemless!=B8 | c4 c4 A4!f! | !stemless!^F8 d4- | d4 B4 G4 | %325
w: mi- se-|re- * re|no-|bis, A
- gnus|De- i,|_ A- gnus|
 !stemless!E8 c4- | c2 c2 A4 F2 F2!ff! | !stemless!f8 g4 | (f4 e4 d4) |!>(! !stemless!e12!>)! | %330
w: De- i|_ qui tol- lis pec-|ca- ta-|mun- * *|di,|
 z12 | z12 | z4 (c2 d2) (B2 c2)!p! | (A2 B2) !stemless!c8 | z4 f4 c4- | c4!<(! A4 F4!<)! | %336
w: ||Do
- * na _|no- * bis,|do- na|_ no- bis|
 !stemless!f8 f4- | f4 F4 _e4!f! | (d4 A4) c4 | B4 !stemless!F8 | z4 !stemless!d8 | d4 G4 f4!f! | %342
w: pa- cem,|_ do- na|no- * bis|pa- cem,|do-|na, do- na|
 (e4 =B4) d4 | c4 !stemless!G8 | !stemless!g8 f4 | !stemless!e8 d4 | (c6 d2 B2 c2) | %347
w: no- * bis|pa- cem,|do- na|no- bis|pa- * * *|
 !stemless!A12 | !stemless!f8 e4 | (e4 d4) c4- | c4 (=B2 A2 B4) | c4 (e2 f2) (d2 e2)!p! | %352
w: cem,|do- na|no- * bis|_ pa- * *|cem, do- * na _|
 (c2 ^c2 d2 _e2) (=c2 d2) | (B4 c2 d2 B2 c2 | A2 c2 B2 A2 G2 F2) | !stemless!E8 z4 | z4 A4 A4!f! | %357
w: no- * * * bis _|pa- * * * *||cem,|do- na|
 B4 !stemless!A8- | A4 G4 G4!p! |!<(! (A4 G4 d4 | c4 f4)!<)!!>(! B4!>)! | (!stemless!A12-!p! | %362
w: no- bis,|_ no- bis|pa- * *|* * cem,|pa-|
 A4 F4 G4) | F4 F4 F4!pp! | !stemless!F12 | F4 F4 F4 | !stemless!F12 | !fermata!!stemless!F12 |] %368
w: |cem, do- na|pa-|cem, do- na|pa-|cem.|
V:2
 z16 | z16 | z4!<(! (A,4 B,4 _D4!<)! |!>(! C2) C2!>)! !fermata!!stemless!C12 | z16 | %5
w: ||Ky
- * *|* ri- e,||
 z4 (C4 F4 A4!f! | G2) !stemless!F2 F8 (B4- | B4 A2 G2) (!stemless!F8 | E4 F4 D4 E2 F2 | %9
w: Ky- * *|* ri- e e-|* * * lei-||
 G4) !stemless!F8 F4 | (E6 F2) (G6 A2) | !stemless!F8 !stemless!B8 | !stemless!A8 !>!!stemless!G8 | %13
w: * son, e-|lei- * son, _|
Ky- ri-|e e-|
 !stemless!G8 F4 !>!F4- | F2 E2 !stemless!E8 (D2 ^C2) | (D2 E2 !stemless!F12- | F4 E2 D2) E4 z4 | %17
w: lei- son, Ky-|* ri- e e- *|lei- * *|* * * son.|
!p! !stemless!F8 E4 D4 | !stemless!F8 !stemless!F8- | F4!<(! F4 E4 D4!<)! | %20
w: Chri
- ste e-|lei- son,|_ Chri- ste e-|
!f! !stemless!B8 !stemless!A8- | A4 A4 E4 F4!p! | (G2 F2 E2 D2) !stemless!^C8 | %23
w: lei- son,|_ Chri
- ste e-|lei- * * * son,|
!f! D4 (!stemless!B8 A4) | !stemless!G8 z4 D4 | (D4 !stemless!B8 A4) | !stemless!B8 z8 | %27
w: e- lei- *|son, e-|lei- * *|son.|
 z8 z4 (F4- | F2 _E2) (D2 C2) !stemless!B,8 | z4 =E4 (C4 F4- | F2 E2 D2 F2) !stemless!E8 | z16 | %32
w: Ky
-|* * ri- * e|e- lei- *|* * * * son,||
 z4 (C4 F4 A4!p! | G2) F2 !stemless!F8 B4"_cresc." |!f! (A2 G2) !stemless!G8 G4 | %35
w: Ky- * *|* ri- e e-|lei- * son, e-|
 G4 !fermata!G4 z4 C4!p! | (!stemless!C8 !stemless!D8 | !stemless!C8) =B,4!<(! B,4!<)! | %38
w: lei- son, e-|lei- *|* son,~e- *|
!f! (C4 A4) E4 (!>!F4- | F4 E2 D2) !stemless!E8 | F4 z4 !stemless!D8!p! | %41
w: lei- * son, e-|* * * lei-|son, e-|
 (!stemless!C8 !stemless!D8) | C4 z4 !stemless!F8-!f! | !stemless!F16 | !stemless!F16 | %45
w: lei- *|son, e-||lei-|
 !fermata!!stemless!F16 |][M:3/2]!f! (F4 A6) c2 | c4 G4 A4 | (B4 c4) d4 | !stemless!c12 | %50
w: son.|Glo
- * ri-|a in ex-|cel- * sis|De-|
 !stemless!A12 | z4 F4 E4!p! | E4 D4 C4- | C4"^cresc." F4 _E4 | D4 D4 G4- | G4 G4 G4!f! | %56
w: o|et in|ter- ra pax,|_ pax ho-|mi- ni- bus|_ bo- nae|
 (G4 A4) F4 | (D2 E2 F2 G2 A2) =B2 | !stemless!c8 z4 | z12 | z4 E6 E2!p! | D4 D4 D4 | %62
w: vo- * lun-|ta- * * * * *|tis;||be- ne-|di- ci- mus|
 !stemless!C8 z4 | z12 | z2 E2 A4 c4!f! | (d4 =B2 A2) ^G4 | A4 A6 A2!p! | A4 G4 F4 | %68
w: te,||glo- ri fi-|ca- * * mus|te, gra- ti-|as a- gi-|
!<(! F4 F4 B4!<)! | (B4 A4)!>(! c4 | (B4!>)! ^F4) G4 |!<(! G4 G4 G4!<)! | (D4!>(! G4 ^F4)!>)! | %73
w: mus ti- bi|prop- * ter|mag- * nam|glo- ri- am|tu- * *|
 G4 G6 G2!pp! | (G4 F4) _E4"_b" |!<(! (_E4 _D4) C4!<)! |!f! _A4 A4 A4 | _A6 A2 A4 |!p! _A4 G4 F4 | %79
w: am. Rex
 coe|le- stis, *|De- * us|Pa- ter om-|ni- po- tens,|Do
- mi- ne|
!<(! (E2 F2) E4!<)!!f! _A2 A2 |[K:F] (G2 F2) E2 F2 G2 F2 | F4 E4 z4 | z12 | z12 | z12 | z12 | %86
w: Fi- * li u- ni-|ge- * ni- te Je
- su|Chri- ste,|||||
 z4 F6 F2!p! | E4 (D6 E2) |!<(! F2 F2 A4!<)!!>(! G2 F2 | E2!>)! D2 (C4 =B,4) | !stemless!C8 z4 | %91
w: Fi- li-|us Pa
- *|tris, qui to- lis pec-|ca- ta mun- *|di,|
 !stemless!F8 F4 | F4 F4 E4!f! | E2 D2 C4 (B,2 B2) | B4 A4!ff! (A2 G2) | F4 G4 A4 | B4 F4 G4 | %97
w: su- sci-|pe de- pre-|ca- ti- o- nem *|no- stram, qui _|se- des ad|dex- te- ram|
 (G4 _E4 F4) | F4 D4 B4 | (F4 G4) A4 | (B4 ^F4) G4 | !>!G4 !>!_E4 =F4 | (F4 D4) _E4 | _E3 E E4 D4 | %104
w: Pa
- * *|tris, quo- ni-|am _ tu|so- * lus|San
- ctus, tu|so- * lus|Do- mi- nus, tu|
 !stemless!D8 ^C2 C2 | D3 D D4 z4 |!f! (D4 ^C4) D4 | (!stemless!F8 E4) | !stemless!E8 z4 | %109
w: so- lus Al
-|tis- si- mus,|Je- * su|Chri- *|ste.|
"A"!f!!f! D4 F6 A2 | A3 E E4 z2 E2 | F4 F4 ^F4 | (G4 E4) =F4 | !stemless!G8 G4 | !stemless!G12 | %115
w: Cum
 San- cto|Spi- ri- tu in|glo- ri- a|De- * i|Pa- tris,|a-|
 !stemless!G8 G4 | ^F6 F2 F4 | (G4 A4) B4 | (E4 F4) F4 | (F4 E2 D2 E4) | !stemless!F8 z4 | %121
w: men, in|glo- ri- a|
De- * i|Pa- * tris,|a- * * *|men,|
 z4 (F4 G4)!f! | A4 z8 | z4 (D4 E4)!p! | F4!<(! D4 D4!<)! | (!stemless!F12-!f! | !stemless!F8 E4) | %127
w: a- *|men,|a- *|men, a- men,|a-||
 !stemless!F12 |][M:4/2]!f! !stemless!D8 F4 A4 | (B4 A4 F4) D4 | (!stemless!F8 !stemless!G8) | %131
w: men.|Cre
- do in|u- * * num|De- *|
 !stemless!A12 z4 |!p! A,4 A,2 A,2 A,4 A,4 | B,4 B,4 z4 D4 |!<(! C4!<)! C4 ^C4 D2 D2 | %135
w: um,|Pa- trem om- ni- po-|ten- tem, fac-|cto- rem coe- li et|
 D4 ^C4 E6 E2!mf! | E3 E E4 F2 A2 G2 F2 | G3 G G4 G4 G4!f! | F4 G4 A3 G F4 | !>!F4 D4 E4 ^C4 | %140
w: ter- rae, vi- si-|bi- li- um et in- vi- si-|bi- li- um, et in|u- num 
Do- mi- num|Je- sum Chri- stum,|
 z8 E3 E F4 | E4 F4 E3 E E4 | z4 A2 A2 F4 E4!p! | D4!<(! D4 F4 F4!<)! | %144
w: Fi
- li- um|u- ni- ge- ni- tum,|et ex Pa
- ter|na- tum an- te|
!>(! (F2 D2) E4!>)! F4 !>!G4- | G2 F2 !stemless!E8 z4 | z4 A4 F4 E4!p! | D4!<(! F4 F4 F2 E2!<)! | %148
w: om- * ni- a sae-|* cu- la,|
De- um de|De- o, lu- men de|
 F4 F4 E4 z4 |!mf! F6 F2 E6!<(! E2!<)!"_." |!>(! !stemless!F8!>)! E4 E4-!p! | E4 E4 ^D4 D4 | %152
w: lu- mi- ne,|ge- ni- tum non|fac- tum con-|* sub- stan- ti-|
 E4 (E2 C2) !stemless!=B,8 | C4!<(! C2 C2 F4 E2 E2!<)! |!>(! D3 C =B,4!>)! z4 E4 | %155
w: a- lem _ Pa
-|tri, per quem om- ni- a|fac- ta sunt, et|
!<(! E4 (D2 C2)!<)! F4!>(! E2 E2!>)! | (D3 C) =B,4 z4 F4!mf!!mf! | (E4 F4) G4 (F2 A2)!f! | %158
w: pro- pter _ no- stram sa-|lu- * tem, de-|scen- * dit de _|
 (!stemless!c12 =B4) | !stemless!c8 z4 C4!pp! | !stemless!C8 !stemless!C8 | D3 D D4 z4 D4 | %162
w: coe- *|lis. Et
|in- car-|na- tus est de|
 !stemless!C8 C4 C4 | =B,4 C4 z4 C2 C2 | (_B,4 !stemless!D8) ^C4 | D3 D !stemless!D8 D4 | %166
w: Spi- ri- tu|San
- cto ex Ma-|ri- * a|vir- gi- ne et|
!<(! (=C4 !stemless!E8) ^D4!<)! | E3 E !stemless!E8 E2 E2!f! | A6 A2 c6 c2 | =B6 B2 d4 d2 d2 | %170
w: ho- * *|mo~fa- ctus est, cru- ci-|fix- us e- ti-|am pro no- bis sub|
 c4 ^G4 A6 F2 | .E4 .E4 z4!pp! (E4 | F4) D4 z4!<(! (A,4 | B,4)!<)!!>(! ^G,4 A,4!>)! E4 | %174
w: Pon
- ti- o Pi-|la- to, pas-|* sus, pas-|* sus et se-|
!pp! (E4 D2 C2 =B,4) B,4 | !fermata!!stemless!^C8 z8 | z8 z4 A4!f! | (D6 E2) F4 (G2 A2) | %178
w: pul- * * * tus|est.|se-|cun- * dum scri- *|
 B4 !stemless!A8 D4 | D4 D4 G4 ^F2 F2 | G4 G4 z4 D4!f! | _E6 E2 D6 G2 | %182
w: ptu- ras, se-|det ad dex- te- ram|Pa
- tris, et|i- te- rum ven-|
[K:F] (G2 ^F2) (G2 A2) D4 F4 | G4 G2 G2 =F4 F4 | F4 F4 z4 !>!F4 | !>!_E4 !>!D4 !>!C4 !>!B,4 | %186
w: tu- * rus _ est cum|glo- ri- a ju- di-|ca- re vi-|vos et mor- tu-|
 !>!!stemless!A,12 _E2 E2 | D4 D2 D2 C4 F4 | .F4 .D4 z8!f! | z16 | z16 | z8 F6 _E2!f! | %192
w: os, cu- jus|re- gni non e- rit|fi- nis.|||qui cum|
 D4 D2 D2 C4 C4 | C4 !>!!stemless!A8 G4- | G4 F2 F2 E4 _E2 E2 | D2 D2 D2 D2 (D4 =E4) | %196
w: Pa
- ter et Fi- li-|o si- mul|_ a- do- ra tur et|con- glo- ri- fi- ca- *|
!>(! !stemless!E12!>)! A4!p! ||[K:D] A4 D4 C4 B,2 B,2 | A,4 C4 C4 z4 | z4 A4 G4 F4!mf! | %200
w: tur. Et
|u- nam san- ctam ca-|tho- li- cam|ec- cle- si-|
 E6!<(! E2 F4 (D2 B,2)!<)! | A,6 A,2 G4 G4!f! | F4 F4 D2 E2 F2 ^G2 |!<(! A4 D4!<)! D4!>(! C4!>)! | %204
w: am, con- fi- te- *|or u- num bap-|tis- ma in re- mis si-|o- nem- pec- ca-|
 D4 D4 z4 F2 F2!f! | (F4 ^D4) !stemless!E8 | z8 z4 =D2 D2!f! | (G4 F4 E4 D4) | %208
w: to- rum, et ex-|pe- * cto|mor- tu-|o- * * *|
 !stemless!C12 !>!E4 | !>!F4 !>!!stemless!E8 E4 | F4 D8 D4 | C4 (D2 E2) C8 | D4 z4 (!stemless!G8 | %213
w: rum. Et
|vi- tam ven-|tu- ri sae-|cu- li. _ A-|men, A-|
 !stemless!A8 !stemless!G8) | !stemless!F16 |][K:F][M:3/2] z12 | z12 | z4 (F4 A4!pp! | %218
w: |men.|||San- *|
 !stemless!E8 G4) | !stemless!F12 | !stemless!F8 F4 | (!stemless!E8!<(! F4) | %222
w: |ctus,|San
- ctus|Do- *|
 D4!<)!!>(! F4 E4!>)! | (F4 A,4) =B,4 | C6 C2 C4- | C4 z4 z4 | z12 |!mf! B4 (C2 E2) (G2 B2) | %228
w: * mi- nus|De- * us|Sa- ba- oth.|_||Ple
- ni _ sunt _|
!<(! B4 A4 A4!<)! |!f! (!stemless!G8- G2 E2) | !stemless!F12 | !>!B4 (C2 E2) (G2 B2) | B4 A4 F4 | %233
w: coe- li et|ter- * *|ra,|ple- ni _ sunt _|coe- li- et|
 F4 F4 d4-!ff! | d4 (c2 B2) (A2 G2) | F4 E4 z2 E2!p! |!<(! !stemless!F12!<)! | %237
w: ter- a, glo-|* ri- * a _|tu- a. O
-|san-|
!>(! !stemless!E8 E4!>)!!p! |!<(! (D4 E2 F2 G4)!<)! | !stemless!G8 z2 E2!f! | (E6 FG A4- | %241
w: na, o-|san- * * *|na, o-|san- * * *|
 A4 G2 A2 B4-"_cresc." | B2 AG F6 GF | E2 F2 G2 A2 B2 E2) | !stemless!F8 A2 A2 | %245
w: |||na in ex-|
 !>!A4 !>!G4 !>!F4 | !stemless!G12 | F4!<(! F4 F4!<)!!p! | !stemless!F12 | !stemless!F12 | %250
w: cel- * *||sis, in ex-|cel-||
 !stemless!E12 | .!fermata!!stemless!F12 |][K:Bb][M:4/2] z8 z4 B,2 B,2!p!"^dolce" | %253
w: |sis.|Be
- ne-|
 C4 C4 z4!<(! A,4!<)! |!>(! B,4!>)! B,4 z4 B,4 |!<(! B,4 B,2!<)! B,2!>(! A,4 C4!>)! | %256
w: di- ctus qui|ve- nit in|no- mi- ne Do
- mi-|
 !stemless!D8 z8 |!f! (!stemless!B8 G4) D4 | !stemless!D8 D4 E4 | (D4 d4) B4 F4 | %260
w: ni,|be- * ne-|di- ctus qui|ve- * nit, qui|
 G4 !stemless!G8 G4!p! | (G4 ^F4)!<(! =F4 F4!<)! | !stemless!F16- | !stemless!F8 !stemless!=E8 | %264
w: ve- nit in|no- * mi- ne|
Do-|* mi-|
 !stemless!F8 F4 F4!f! | (F4 B2 A2) (G2 F2) (E2 !tenuto!D2) | (C2 D2) !stemless!E8 =E4 | %267
w: ni, be- ne-|di- * * ctus _ qui _|ve- * nit in|
 (F4 A,4) B,4 C4 | (D4 !stemless!F8) =E4 | !stemless!F8 =E4 (G2 F2) | F4 z4 G4 (B2 A2) | %271
w: no- * mi- ne|Do- * mi-|ni, qui ve- *|nit, qui ve- *|
 A4 !stemless!A8 G4- | G4 F2 E2 D4 =E4 | !stemless!F8 F4 _E4!p! | _D4 D4 z8 | %275
w: nit in no-|* mi- ne Do
- mi-|ni, be- ne-|di- ctus|
 z4 _D4 !stemless!=D8!mf! | !stemless!E8 z8 | z4 E4 !stemless!=E8!f! | !stemless!F8 ^F4 F4 | %279
w: qui ve-|nit,|qui ve-|nit, be- ne-|
 ^F4 G2 G2 =F4 E2 E2 |"^dim." (!stemless!D12 C4) | B,4 z2 D2 (E4 =E4) | F4 D4 (B,2 A,2) B,2 C2 | %283
w: di- ctus qui ve- nit, qui|ve- *|nit, qui ve- *|nit in no- * mi- ne|
 (D4 B,4 C4) (D2 E2) | D4 z2"_" D2 E4 D4 | z4 D2 D2 E4 D4!mf!!mf! | z4 (!stemless!D8 F4-!p! | %287
w: 
Do- * * mi- *|ni. O- san- na|in ex- cel- sis,|in _|
 F4) (E2 D2) !stemless!E8!pp! | !fermata!!stemless!D16 |][K:F][M:3/2] z12 | %290
w: _ ex- * cel-|sis.||
 z4 F4"^dolce" F4!p!!p! | F4 F6 F2 | F4 F2 F2 F4- | F4 E4 D4 | !stemless!E8 z4 | z4 C4 E4!mf! | %296
w: A
- gnus|De- i qui|tol- lis pec~ca- *|* ta mun-|di,|A
- gnus|
 G4 A6 A2 | E4 G4 F4 | !stemless!D8 E4 |!f!!<(! (F6 E2 F2 G2)!<)! | A6 (G2 F2 E2) | %301
w: De- i qui|tol- lis pec-|ca- ta|mun- * * *|di, mi- * *|
 (D6 ^C2) (D2 E2) | (F6 E2 D2 =C2 | B,6 C2 D4) | !stemless!^C8 z4 | z4 z4 (A4-!f! | %306
w: * * se- *|re- * * *||re,|
A-|
 A2 G2 F2 E2) D4- | D4 D4 D2 D2 | ^C4 C4 D4 | F4 E4 _E4 | !stemless!D8 z4 | z4!<(! D4 D4!<)!!p! | %312
w: * * * * gnus|_ De- i qui|tol- lis pec-|ca- ta mun-|di,|mi- se-|
!>(! E4 D4!>)! (G4- | G4 ^F2 G2) (=E2 F2) | !stemless!G8 D4- |!<(! D4 !stemless!D8!<)! | C4 z4 z4 | %317
w: re- re, mi-|* * * se- *|re- re|_ no-|bis,|
 z4 E4 E4!p! | F4 E4 (A4-!mf! | A4 ^G2 A2) (^F2 G2) | !stemless!A8 A4- | A4 (G2 A2 F2 G2) | %322
w: mi- se-|re- re, mi-|* * * se- *|re- re|_ no- * * *|
 !stemless!E8 _E4-!f! | E2 (_E2 D4) C4 | B,2 B,2 !>!D4 _D4- | D2 _D2 C4 B,4 | A,4 C4 F4!ff! | %327
w: bis, A
-|* gnus De- *|i qui tol- lis|_ pec- ca- ta|mun- di, pec-|
 _A4 !stemless!G8 | (!stemless!G8 _A4) |!>(! !stemless!G12!>)! | z4 C4 B4!p! | (A4 E4) G4 | %332
w: ca- ta|mun- *|di:|Do
- na|no- * bis|
 F4 !stemless!C8 | z4 A4 E4 | (F6 A2) (c2 G2) | (A2 B2) !stemless!c8 | z4 (F2 G2) (_E2 F2)!mf! | %337
w: pa- cem,|do- na|no- * bis _|pa- * cem,|do- * na _|
 (D2 _E2) !stemless!F8 | z12 | z2 (B2 c2 A2) (F2 E2)!f! | !stemless!F12- | F2 ^F2 (G2 =F2 E2 D2) | %342
w: no- * bis,||do- * * na _|no-|* bis pa- * * *|
 C4 z2 (G2 A2) =B2 | c2 G4 (G2 A2) =B2 | c2 G4 (G2 A2) =B2 | c2 G4 (G2 A2) =B2 | (c2 A4) F2 (G4- | %347
w: cem, do- * na|pa- cem, do- * na|pa- cem, do- * na|pa- cem, do- * na|no- * bis pa-|
 G2 E2 A2 G2 F2 E2) | D4 z4 z4 | z4 F4 F4 | (F2 E2 F2 A2 G2 F2) | (E2 F2) G4 F4!p! | (E4 A4) ^F4 | %353
w: |cem,|do- na|pa- * * * * *|cem, * do- na|no- * bis,|
 (D4 G4) E4 | (!stemless!F8 D4) | !stemless!C8 z4 | z4 E4 E4!f! | F4 !stemless!F8- | F4 F4 F4!p! | %359
w: no- * bis|pa- *|cem,|do- na|no- bis,|_ no- bis|
!<(! (!stemless!E12 | !stemless!F8)!<)!!>(! F4!>)! | (!stemless!F12-!p! | F4 D4 E4) | %363
w: pa-|* cem,|pa-||
 !stemless!C8 z4 |!pp! (D4 B,6 A,2) | !stemless!A,8 z4 | (D4 B,6 A,2) | !fermata!!stemless!A,12 |] %368
w: cem,|do- * *|na|pa- * *|cem.|
V:3
 z16 | z16 | z4!<(! (!stemless!F8 B4!<)!!p! |!>(! A2) G2!>)! !fermata!!stemless!G12 | z16 | z16 | %6
w: ||Ky
- *|* ri- e,|||
 z16 | z16 | z16 | z4 (F4 A4 d4!f! | c2) B2 !stemless!B8 A4- | A4 d4 ^c4 e4 | %12
w: |||Ky- * *|* ri- e, Ky-|* ri- e e-|
 (f2 e2) !stemless!d8 d4- | d4 (c2 =B2) A4 d4 | !stemless!c8 G4 G4 | (A6 c2 =B4 d4) | %16
w: lei- * son, Ky-|* ri- * e e-|lei- son, e-|lei- * * *|
 !stemless!G12 z4 | z4 c4 c4 A4!p! | !stemless!d8 !stemless!c8 | z4!<(! c4 c4 A4!<)! | %20
w: son.|Chri
- ste e-|lei- son,|Chri- ste e-|
!f! (f4 d4) !stemless!c8 | z4 A4 B4 c2 ^c2!p! | (d2 =c2 B2 A2) G4!<(! A4!<)! |!f! (B4 G4 A4 ^F4) | %24
w: lei- * son,|Chri
- ste e- *|lei- * * * son, e-|lei- * * *|
 G4 (!>!d6 c2) B2 d2 | (f6 g2 _e6 f2) | !stemless!d8 z8 | z4!>(! (c6 B2) (A2 G2)!>)!"_." | %28
w: son, Chri
- * ste e-|lei- * * *|son.|Ky
- * ri- *|
 !stemless!F8 !stemless!d8 | (c6 B2 A6 G2) | !stemless!G8 z8 | z16 | z16 | %33
w: e e-|lei- * * *|son,|||
 z4!mf!"_cresc." (A4 d4 f4 |!f! e2) d2 !stemless!d8 _d4 | c4 !fermata!c4 z4 G4!p! | %36
w: Ky- 
- *|* ri- e e-|lei- son, e-|
 A4 !stemless!F8 B4 | A4 !stemless!F8!<(! d4!<)! |!f! f4 (e2 d2 c8 | !stemless!B12 c4) | %40
w: lei- son, e-|lei- son,~e- *|lei- lei- * *||
 A4 z4 !stemless!B8!p! | (!stemless!F8 !stemless!B8) | A4 !stemless!F8 (F2 G2)!f! | %43
w: son, e-|lei- *|son, Ky
- ri- *|
 (A2 B2 c2 d2 _e4) d4 | !stemless!c16 | !fermata!!stemless!c16 |][M:3/2] z12 | z12 | z12 | z12 | %50
w: e _ _ _ _ e-|lei-|son.|||||
 z12 | z4 c4 c4!p! | c4 A4 F4- |"^cresc." F4 F4 ^F4 | ^F4 (G2 B2) d4- | d4 d4 B4!f! | (B4 A4) c4 | %57
w: |et in|ter- ra pax,|_ pax ho-|mi- ni- * bus|_ bo- nae|vo- * lun-|
 (c4 =B2 A2 G4) | !stemless!G8 z4 | z12 | z4 A6 A2!p! | ^G4 (G2 A2) =B4 | !stemless!A8 z4 | z12 | %64
w: ta- * * *|tis;||be- ne-|di- ci- * mus|te,||
 z2 c2 e4 A4!f! | (^G4 =B4) e4 | A4 e6 e2!p! | _e4 e4 e4 |!<(! d4 c4 B4!<)! | !stemless!c8 B4 | %70
w: glo- ri- fi-|ca- * mus|te, gra- ti-|as a- gi-|mus ti- bi|pro- pter|
!>(! (B4 A4)!>)! G4 |!>(! _e4 (d2 c2) (B2 A2)!>)! |!<(! (B4!<)! d4!>(! c4)!>)! | B4 d6 d2!pp! | %74
w: mag- * nam|glo- ri- * am _|tu- * *|am. Rex
 coe|
 !stemless!_d8 d4 |!<(! (c4 B4) _A4!<)! |!f! f4 f4 f4 | f6 _e2 e4 | z12 | z8!f! C2 D2 | %80
w: le- stis,|De- * us|Pa- ter om-|ni- po- tens,||u- ni-|
 (E2 F2) G2 _A2 B2 =B2 | c4 c4 z4 |!mf! F4 A6 c2 | (c4 G4) A4 | (B4 c4) d4 | !stemless!c12 | %86
w: ge- * ni- te Je
- su|Chri- ste,|Do- mi- ne|De
- * us|A- * gnus|De-|
 A4 c6 c2!p! | c4 (A4 d4) | c4 z4 z4 | z4!<(! F4 G4!<)! |!>(! A4 G4!>)! (c4- | c2 d2 _e4) d4 | %92
w: i, Fi- li-|us Pa- *|tris,|mi se-|re- re, su-|* * * sci-|
 c4 c4 B4!f! | A2 A2 A4 (B2 G2) | F4 F4!ff! A4 | d4 d4 c4 | B6 A2 G4 | (e6 d2 c4) | B4 B4 B4 | %99
w: pe de pre-|ca- ti- o- nem _|no- stram, qui|se- des ad|dex- te- ram|Pa
- * *|tris, quo- ni-|
 !stemless!d8 c4 | (B6 A2) G4 | !>!e4 !>!c4 c4 | !stemless!B8 B4 | c3 c c4 A4 | %104
w: am tu|so- * lus|San
- ctus, tu|so- lus|Do- mi- nus, tu|
 !stemless!B8 E2 E2 | D3 D D4 z4 |!f! !stemless!^G8 G4 | !stemless!^G12 | !stemless!A8 z4 | %109
w: so- lus Al
-|tis- si- mus,|Je- su|Chri-|ste.|
"A"!f!!f! D4 F6 A2 | A3 E E4 z2 E2 | F4 d4 c4 | !stemless!c8 c4 | (d4 A4) B4 | !stemless!c12 | %115
w: Cum
 San- cto|Spi- ri- tu in|glo- ri- a|De
- i|Pa- * tris,|a-|
 !stemless!^c8 c4 | d6 d2 _e4 | (d4 c4) B4 | (G4 A4) =B4 | (c4 _B2 A2 B4) | A4 d4 c4!f! | %121
w: men, in|glo- ri- a|De
- * i|Pa- * tris,|a- * * *|men, a- men,|
 !stemless!B12 | A4 d4 c4!p! | !stemless!B12 | A4!<(! F4 A4!<)! |!f! (!stemless!f8 e4 | %126
w: a-|men, a- men,|a-|men, a- men,|a- *|
 !stemless!d8 _d4) | !stemless!c12 |][M:4/2]!f! !stemless!D8 F4 A4 | (B4 A4 F4) D4 | %130
w: |men.|
Cre- do in|u- * * num|
 (!stemless!d12 e4) | !stemless!e12 z4 |!p! F4 F2 F2 F4 F4 | F4 F4 z4 B4 | %134
w: De- *|um,|Pa- trem om- ni- po-|ten- tem, fac-|
!<(! A4!<)! A4 A4 A2 ^G2 | A4 A4 ^c6 c2!mf! | ^c3 c c4 d2 f2 e2 d2 | ^c3 c c4 d4 e4!f! | %138
w: to- rem coe- li et|ter- rae, vi- si-|bi- li- um et in- vi- si-|bi- li- um, et in|
 d4 (=c2 B2) A3 B c4 | !>!d4 d4 ^c4 A4 | ^c3 c d4 c4 A2 =B2 | ^c4 =B4 c3 c c4 | %142
w: u- num * Do
- mi- num|Je- sum Chri- stum,|Fi
- li- um~De- * * *|u- ni- ge- ni- tum,|
 z4 A2 A2 =c6 _B2!p! | A4!<(! d4 c4 A4!<)! |!>(! B4 c4!>)! c4 !>!c4- | c2 c2 c4 c4 c2 B2!p! | %146
w: et ex Pa
- ter|na- tum an- te|om- ni- a sae-|* cu- la, De
- um de|
 A4 A4 z4 c4 | A4!<(! d4 (c2 B2) (A2 G2)!<)! | A4 c4 c4 !>!c4-!mf! | c4 =B4 G4 c4 | %150
w: De- o, lu-|men, lu- men * de _|lu- mi- ne, ge-|* ni~- tum non|
!>(! (c4 =B4)!>)! c4 A4-!p! | A4 A4 =B4 B4 | =B4 (c2 A2) (A4 ^G4) | A4!<(! A2 A2 d4 c2 c2!<)! | %154
w: fac- * tum con-|* sub- stan- ti-|a- lem _ Pa
- *|tri, per quem om- ni- a|
!>(! =B3 A ^G4!>)! z4 B4 |!<(! c4 (=B2 A2)!<)! d4!>(! c2 c2!>)! | (=B3 A) ^G4 z4 B4 | %157
w: fac- ta sunt, et|pro- pter- * no stram sa-|lu- * tem, de-|
 (c4 =B2 A2) =G4 c4!f! | (c4 d2 e2 !stemless!f8) | !stemless!e8 z4 G4!pp! | %160
w: scen- * * dit de|coe- * * *|lis. Et
|
 !stemless!G8 !stemless!G8 | G3 G G4 z4 G4 | !stemless!G8 G4 G4 | G4 G4 z4 G2 G2 | %164
w: in- car-|na- tus est de|Spi- ri- tu|San
- cto ex Ma-|
 !stemless!F8 !stemless!G8 | A3 A !stemless!A8 A4 |!<(! !stemless!G8 !stemless!A8!<)! | %167
w: ri- a|vir- gi- ne et|ho- mo|
 =B3 B !stemless!B8 B2 B2!f! | c6 c2 A6 A2 | d6 d2 =B4 B2 B2 | c4 f4 e6 d2 | .c4 .=B4 z4!pp! (E4 | %172
w: fac- tus est, cru- ci-|fix- us- e- ti-|am pro no- bis sub|Pon
- ti- o Pi-|la- to, pas-|
 F4) D4 z4!<(! (E4 | F4)!<)!!>(! D4 E4!>)! c4 |!pp! (c4 =B2 A2 A4) ^G4 | !fermata!!stemless!A8 z8 | %176
w: * sus, pas-|* sus et se-|pul- * * * tus|est.|
 z16 | z8 z4 d2 d2!f! | d4 c2 B2 c4 (B2 A2) | B4 A2 G2 _e4 d2 c2 | B4 B4 z4 B4!f! | %181
w: |et as-|cen- dit in coe lum, *|se- det ad dex- te- ram|Pa
- tris, et|
 (B2 A2 B2) c2 d6 d2 |[K:F] (d2 c2) (B2 A2) B4 A4 | G4 _e2 d2 c4 A4 | B4 B4 z4 !>!F4 | %185
w: i- * * te- rum ven-|tu- * rus _ est cum|glo- ri- a ju- di-|ca- re, vi-|
 !>!^F4 !>!G4 !>!A4 !>!B4 | !>!!stemless!c12 A2 A2 | B4 B2 B2 _e6 e2 | .d4 .B4 z8 | z8 z4 d4!f! | %190
w: vos et mor- tu-|os, cu- jus|re- gni non e- rit|fi- nis.|...et|
[K:F] (G6 (A2) (B4) c2) d2 | (e6 d2) c4 z4 | z4 z2 B2 A4 G4 | A4 !>!!stemless!f8 e4- | %194
w: vi- * vi * fi-|can- * tem,|et fi- li-|o si- mul|
 e4 d2 d2 ^c4 =c2 c2 | B2 B2 B2 B2 (B4 G4) |!>(! !stemless!A12!>)! A4!p! ||[K:D] A4 A4 G4 F2 F2 | %198
w: _ a- do- ra- tur et|con- glo- ri- fi- ca- *|tur. Et
|u- nam san- ctam ca-|
 E4 A4 A4 z4 | z4 A4 A4 A4 | A4 c4!<(! d4 (B2 G2)!<)! | F4"^" A4 ^A4 A4 | ^A4 B4 B2 =A2 G2 =F2 | %203
w: tho- li- cam-|ec- cle- si-|am, con- fi- te- *|or u- num bap-|tis- ma in re- mis si-|
!<(! E4 ^F4!<)! G4!>(! E4!>)! | D4 D4 z4 d2 d2!f! | (d4 =c4) B4 ^c2 c2 | d4 B4 A4 A4 | %207
w: o- nem pec- ca-|to- rum, et ex-|pe- * cto re- sur-|re- cti- o- nem|
 A6 A2 !stemless!A8 | !stemless!A12 !>!c4 | !>!d4 !>!!stemless!B8 (B2 c2) | d2 e2 f8 B4 | %211
w: mor- tu- o-|rum. Et
|vi- tam ven- *|tu- * ri sae-|
 A4 (A2 B2) (A4 G4) | F4 z4 (!stemless!d8- | d4 !stemless!D8 B4) | !fermata!!stemless!A16 |] %215
w: cu- li. _ A
- *|men, A-||men.|
[K:F][M:3/2]!pp! (F4 A4 c4- | c4 G4) B4 | !stemless!A12 | (!stemless!G8 E4) | F4 (f4 e4 | %220
w: San- * *||ctus,|San
- *|ctus, San- *|
 d4 c4) B4- | B4 (c4!<(! A4) | F4!<)! !stemless!G8 | !stemless!F8!<(! (F2 G2)!<)! | %224
w: * * ctus|_ Do- *|mi- nus|De
- us _|
!>(! A6!>)! G2 G4 | z12 |!mf! B4 (F2 A2) (c2 e2) | f4 e6 d2 |!<(! (!stemless!c8- c2 =B2)!<)! | %229
w: Sa- ba- oth.||Ple- ni _ sunt _|coe- li et|ter- * *|
 !stemless!c12 |!f! c4 (F2 A2) (c2 f2) | f4 !stemless!e8 | _e6 c2 A4 | B4 d4 z4 |!ff! B4 c4 d4 | %235
w: ra,|coe- li _ et _|ter- ra|glo- ri- a|tu- a,|glo- ri- a|
 c4 c4 z2 c2!p! |!<(! !stemless!=B12!<)! |!>(! !stemless!c8 e4!>)!!p! |!<(! (f4 e4 d4)!<)! | %239
w: tu- a. O
-|san-|na, o-|san- * *|
 !stemless!e8 z2 c2!f! | (!stemless!c8- c2 de | f2 e2 d2 c2 B2 A2"_cresc." | G2 c4 (=BA) B4 | %243
w: na, o-|san- * * *|||
 B2 A2 G2 F2 E2 G2) | !stemless!F8 f2 d2 | (!>!c6 B4 A2 | B2 d2 c2 B2 A2 B2) | %247
w: |na in ex-|cel- * *||
 A4!<(! c4 d4!<)!!p! | (!stemless!e8 d4 | !stemless!=B12 | !stemless!c12) | %251
w: sis, in ex-|cel- *|||
 .!fermata!!stemless!c12 |][K:Bb][M:4/2] z8 z4 F2 F2!p!"^dolce" | F4 F4 z4!<(! F4!<)! | %254
w: sis.|Be
- ne-|di- ctus qui|
!>(! F4!>)! F4 z4 F4 |!<(! G4 F2!<)! E2!>(! F4 A4!>)! | A4 !stemless!d8 B4!f! | %257
w: ve- nit in|no- mi- ne Do
- mi-|ni, be- ne-|
 G4 !stemless!D8 z4 | !>!!stemless!A8 !>!!stemless!A8 | !stemless!B8 d4 f4 | %260
w: di- ctus,|be- ne-|dic- tus qui|
 =e4 !stemless!e8 (e2 A2)!p! | (A4!<(! d6) d2 d4!<)! | c6 c2 d8 | z4 !stemless!c8 c4!mf! | %264
w: ve- nit in *|no- * mi- ne|Do- min- ni,|be- ne-|
!f! (c4 f2 e2) (d2 c2) (B2 A2) | (B4 F4) G4 B4 | (e2 d2 c6 B2) A2 G2 | (!stemless!F16- | %268
w: di- * * ctus _ qui _|ve- * nit in|no- * * * mi- ne|
Do-|
!<(! F4 !stemless!d8)!<)!!>)!!>(! (c2 B2) | !stemless!A8 G4 (B2 A2) | A4 z4 c4 (d2 c2) | %271
w: * * mi- *|ni, qui ve- *|nit, qui ve- *|
 c4 c4 (d4 B4 | B4) A2 A2 B4 G4 | !stemless!A8 A4 A4!p! | _A4 A4 c6 c2 | _d4 _A4 z4 B4!mf! | %276
w: nit in no- *|* mi- ne Do
- mi-|ni, be- ne-|dic- tus be- ne-|dic- tus qui|
 B4 B2 B2 =d6 d2 | e4 B4 z4 c4!f! | (!stemless!c12 d4 | e4) d2 d2 (c4 A4 | %280
w: ve- nit in no- mi-|ne, _ in|no- *|* mi- ne Do- *|
"^dim." !stemless!B8) !stemless!A8 | B4 z4 z4 z2 B2!f! | (B2 A2) B2 c2 (d4 g4 | %283
w: * mi-|ni, qui|ve- * nit in no- *|
 f4) d2 B2 A4 (B2 c2) | B4 z2 F2 G4 F4 | z4 F2 F2 G4 F4 | z4 !stemless!F8 D4!p! | (E4 F4 G4 A4) | %288
w: * mi- ne Do
- mi- *|ni. O- san- na|in ex- cel- sis,|in ex-|cel- * * *|
 !fermata!!stemless!B16 |][K:F][M:3/2] z4"^dolce" F4 A4!p! | c4 d6 d2 | A4 B4 =B4 | c4 A4 (d4- | %293
w: sis.|A
- gnus|De- i qui|tol- lis pec-|ca- ta, mun-|
 d4 c4 =B4) | !stemless!c8 z4 | z4 c4 c4!mf! | c4 c6 c2 | c4 c2 c2 c4- | c4 =B4!<(! _B4 | %299
w: |di,|A
- gnus|De- i qui|tol- lis pec ca-|* ta mun-|
 !stemless!A8!<)! (d4!f! | !stemless!c8) A4 | !stemless!F8 (F2 G2) | !stemless!A8 F4 | %303
w: di, mi-|* se-|re- re, _|mi- se|
 (D2 d4) c2 !>!B4- | B4 A4 z4 | z12 | z4 z4 (f4!f! | f2 e2 d2 c2) B4 | !stemless!A8 (A2 B2) | %309
w: re- * re no-|* bis,||A
-|* * * * gnus,|a- gnus _|
 (c2 =B2 !stemless!c8) | B4 B4 B4!p! | A4 !stemless!D8 | z4 d4 d4 | (^c4 !stemless!=c8) | %314
w: De- * *|i, mi- se-|re- re,|mi- se-|re- *|
 !stemless!B12 |!<(! (A4 _A4 G4)!<)! | G4 c4 c4!p! | =B4 !stemless!E8 | z4 e4 e4!mf! | %319
w: re|no- * *|bis, mi- se-|re- re,|mi- se-|
 (^d4 !stemless!=d8) | !stemless!c12 | (f4 e2 f2 d2 e2) | !stemless!c8 c4-!f! | c2 c2 (B4 A4) | %324
w: re- *|re|no- * * * *|bis, A
-|* gnus De- *|
 G2 G2 !>!B4 B4- | B2 B2 A4 G4 | F4 A4 c4!ff! | !stemless!d8 d4 | (!stemless!c8 =B4) | %329
w: i qui tol- lis|_ pec- ca- ta|mun- di, pec-|ca- ta|mun- *|
!>(! !stemless!c12!>)! | z12 | z4 (c2 d2) (B2 c2)!p! | (A2 B2) !stemless!c8 | z4 f4 c4- | %334
w: di:||Do
- * na _|no- * bis,|do- na|
 c4 A4 F4 | !stemless!_e8 A4 |!mf! B2 A2 B4 c4 | (F4 d2 c2 B2 A2) | B4 F4 _e4 | d4 A4 (c4- | %340
w: _ no- bis|pa- cem,|do na no- bis|pa- * * * *|cem, do- na|no- bis pa-|
 c2 d2 B2 c2 _A2 B2) | G4 d4 G4- | G4 G4 f4!f! | (e4 =B4) d4 | c4 !stemless!G8- | G4 c4 f4 | %346
w: |cem, do- na,|_ do- na|no- * bis|pa- cem,|_ do- na|
 e4 !stemless!c8 | ^c4 !stemless!A8 | z2 (A2 d2 e2) (=c2 d2) | (B2 F2 B2 c2) A2 B2 | %350
w: no- bis|pa- cem,|do- * * na _|no- * * * bis _|
 (G6 f2 e2 d2) | c4 G4 A4!p! | (B4 ^F4) A4 | (G2 =F2 E4) G4 | (F4 d4 =B4) | !stemless!c8 z4 | %356
w: pa- * * *|cem, do- na|no- * bis,|no- * * bis|pa- * *|cem,|
 z4 ^c4 c4!f! | d4 !stemless!d8- | d4 d4 d4!p! |!<(! (!stemless!c8 G4 | %360
w: do- na|no- bis,|_ no- bis|pa- *|
 !stemless!A8)!<)!!>(! d4!>)! |!p! (c4 A4) F4 | !stemless!B12 | !stemless!A8 (F4-!pp! | F4 D6 C2) | %365
w: * cem,|no- * bis|pa-|cem, do-||
 !stemless!C8 (!>!F4- | F4 D6 C2) | !fermata!!stemless!C12 |] %368
w: na pa-||cem.|
V:4
 z4 (F,4 A,4 C4!p! | B,2) A,2 !fermata!!stemless!A,12 | z4!<(! (F,4 B,,4 G,,4!<)!!p! | %3
w: 
Ky- * *|* ri- e,|Ky
- * *|
!>(! C,2) C,2!>)! !fermata!!stemless!C,12 | z16 | z16 | z16 | z4 (F,4 A,4 C4!f! | %8
w: * ri- e,||||Ky- * *|
 B,2) A,2 !stemless!A,8 (G,2 F,2) | (E,4 F,2 E,2 B,,4 G,,4) | !stemless!C,12 ^C,4 | %11
w: * ri- e e- *|lei- * * * *|son, e-|
 (!stemless!D,8 !stemless!G,8) | F,4 !stemless!F,8 (G,2 F,2) | (!stemless!E,8 F,4) G,4 | %14
w: lei- *|son, Ky
- ri- *|e _ e-|
 (A,4 G,2 F,2) E,4 E,4 | (F,2 E,2 D,4 G,4 G,,4) | !stemless!C,12 z4 |!p! !stemless!F,8 C,4 D,4 | %18
w: lei- * * son, e-|lei- * * * *|son.|Chri
- ste e-|
 (B,,2 C,2 D,2 E,2) !stemless!F,8 | !stemless!F,8!<(! C,4 D,4!<)! | %20
w: lei- * * * son,|Chri- ste e-|
!f! (B,,2 C,2 D,2 E,2) !stemless!F,8 | z4 F,4 G,4 A,4!p! | (B,2 A,2 G,2 F,2) E,4!<(! _E,4!<)! | %23
w: lei- * * * son,|Chri
- ste e-|lei- * * * son, e-|
!f! !stemless!D,16 | G,4 (!>!B,6 A,2) G,4 | !stemless!F,8 !stemless!F,8 | %26
w: lei-|son, Chri
- * ste|e- lei-|
 B,,4 (B,6 A,2) (G,2 F,2) | !stemless!E,8 !stemless!_E,8 | !stemless!D,8 G,,4 G,,4 | %29
w: son. Ky- * ri- *|e e-|lei- son, e-|
 !stemless!C,16 | !stemless!C,16 | z4 (F,4 A,4 C4!p! | B,2) A,2 (A,6 G,2) (F,2 E,2) | %33
w: lei-|son,|Ky
- * *|* ri- e _ e- *|
 D,4 !stemless!D,8 D4"_cresc." |!f! (C2 B,2) !stemless!B,8 B,4 | B,4 !fermata!B,4 z4 B,,4!p! | %36
w: lei- son, e-|lei- * son, e-|lei- son, e-|
 (!stemless!A,,8 !stemless!B,,8 | !stemless!C,8) D,4!<(! D,4!<)! |!f! !stemless!C,8 C,4 (!>!D,4- | %39
w: lei- *|* son, e-|lei- son, e-|
 D,4 G,,4) !stemless!C,8 | F,,4 z4 !stemless!B,,8!p! | (!stemless!A,,8 !stemless!B,,8) | %42
w: * * lei-|son, e-|lei- *|
 F,4 z4 (!stemless!D,8!f! | C,4) B,,4 A,,4 B,,4 | !stemless!F,16 | !fermata!!stemless!F,,16 |] %46
w: son, Ky
-|* ri- e- e-|lei-|son.|
[M:3/2] z12 | z12 | z12 | z12 | z12 | z4 F,4 C,4!p! | C,4 D,4 A,,4- |"^cresc." A,,4 D,4 C,4 | %54
w: |||||et in|ter- ra pax,|_ pax ho-|
 B,,4 B,,4 G,,4- | G,,4 G,4 F,4!f! | (E,4 F,4) A,4 | !stemless!D,12 | !stemless!C,8 C4!f! | %59
w: mi- ni- bus|_ bo- nae|vo- * lun-|ta-|tis; lau-|
 C,4 D,4 E,4 | !stemless!A,,12- | !stemless!A,,8 z4 | z4 C6 C2!f! | (C,4 D,4) E,4 | %64
w: da- * mus|te,|_|a- do-|ra- * mus|
 !stemless!A,,12- | !stemless!A,,8 z4 | z4 A,6 A,2!p! | !stemless!F,12 |!<(! B,4 A,4 G,4!<)! | %69
w: te,|_|gra- ti-|as|a- gi- mus|
 !stemless!^F,8 F,4 |!>(! (G,4 D,4) _E,4!>)! | C,4 D,4 _E,4 |!>(! !stemless!D,12!>)! | %73
w: ti- bi|pro- * pter|glo- ri- am|tu-|
 G,4 G,6 G,2!pp! | !stemless!_E,8 E,4 |!<(! (_A,4 _E,4) F,4!<)! | %76
w: am. Rex
 coe|le- stis,|De- * us|
!f! (_D,2 C,2) D,2 _E,2 (F,2 G,2) | _A,6 A,2 A,4 | z12 | z8!f! C,2 C,2 |[K:F] C,4 C,2 C,2 C,2 C,2 | %81
w: Pa- * ter _ om- *|ni- po- tens,||u- ni-|ge- ni- te Je
- su|
 C4 C,4 z4 |!mf! F,4 A,6 C2 | (C4 G,4) A,4 | (B,4 C4) D4 | !stemless!C12 | A,4 F,6 F,2!p! | %87
w: Chri- ste,|Do- mi- ne|De
- * us|A- * gnus|De-|i, Fi- li-|
 C,4 (D,4 B,,4) | F,4 z4 z4 | z4!<(! D,4 G,,4!<)! |!>(! C,4 C,4!>)! z4 | !stemless!F,8 B,,4 | %92
w: us Pa
- *|tris,|mi se-|re- re,|su- sci-|
 A,,4 B,4 G,4!f! | F,2 F,2 F,4 E,4 | F,4 F,4!ff! (F,2 _E,2) | D,4 _E,4 F,4 | G,4 D,4 _E,4 | %97
w: pe de pre-|ca- ti- o- nem|no- stram, qui _|se- des ad|dex- te- ram|
 (!stemless!C,8 F,4) | D,4 (B,2 A,2) (B,2 G,2) | (D,4 _E,4) F,4 | (F,4 D,4) _E,4 | C,6 C,2 F,4 | %102
w: Pa
- *|tris, quo- * ni- *|am _ tu|so- * lus|San
- ctus, tu|
 (D,4 B,,4) _E,4 | C,3 B,, A,,4 D,4 | (B,,2 A,,2) B,,4 A,,4 | B,,3 B,, B,,4 z4 | %106
w: so- * lus|Do- mi- nus, tu|so- * lus Al
-|tis- si- mus,|
!f! !stemless!B,,8 B,,4 | !stemless!A,,12 | !stemless!A,,8 z4 |"A"!f!!f! D,4 F,6 A,2 | %110
w: Je- su|Chri-|ste.|Cum
 San- cto|
 A,3 E, E,4 z2 E,2 | F,4 D,4 ^D,4 | (E,4 B,4) A,4 | !stemless!G,8 (G,2 F,2) | !stemless!E,12 | %115
w: Spi- ri- tu in|glo- ri- a|De
- * i|Pa- tris, *|a-|
 E,4 E,4 _E,4 | D,6 D,2 C,4 | (B,,4 A,,4) G,,4 | !stemless!C,8 D,4 | !stemless!C,12 | %120
w: men, in _|glo- ri- a|De
- * i|Pa- tris,|a-|
 !stemless!D,8 z4 | z4 (D,4 E,4)!f! | F,4 z8 | z4 (B,,4 C,4)!p! | D,4!<(! D,4 D,4!<)! | %125
w: men,|a- *|men,|a- *|men, a- men,|
 !stemless!B,,12-!f! | !stemless!B,,12 | !fermata!!stemless!F,,12 |] %128
w: a-||men.|
[M:4/2]!f! !stemless!D,8 F,4 A,4 | (B,4 A,4 F,4) D,4 | !stemless!D,16 | !stemless!A,,12 z4 | %132
w: Cre
- do in|u- * * num|De-|um,|
!p! D,4 D,2 D,2 D,4 C,4 | B,,4 B,,4 z4 B,,4 |!<(! F,,4!<)! F,4 E,4 D,2 D,2 | %135
w: Pa- trem om- ni- po-|ten- tem, fac-|to- rem coe- li et|
 A,,4 A,,4 A,6 A,2!mf! | G,3 G, G,4 F,2 F,2 F,2 F,2 | E,3 E, E,4 D,4 ^C,4!f! | D,4 E,4 F,3 F, F,4 | %139
w: ter- rae, vi- si-|bi- li- um et in- vi- si-|bi- li- um, et in|u- num Do
- mi- num|
 !>!B,,4 B,4 A,4 A,,4 | A,3 A, B,4 A,4 D,4 | A,4 ^G,4 A,3 A, A,4 | z4 A,2 =G,2 F,4 C,4!p! | %143
w: Je- sum Chri- stum,|Fi
- li- um De- i,|u- ni- ge- ni- tum,|et ex Pa
- ter|
 D,4!<(! B,,4 F,4 F,4!<)! |!>(! G,4 C,4!>)! F,4 !>!E,4- | E,2 F,2 !stemless!C,8 z4 | %146
w: na- tum an- te|om~ni- * a sae-|* cu- la,|
!p! A,4 A,2 G,2 F,4 C,4 | D,4!<(! B,,4 F,4 F,2 F,2!<)! | F,4 A,,4 C,4 z4 | %149
w: De
- um de De- o,|lu- men, lu- men de|lu- mi ne,|
!mf! G,,6 G,,2 A,,6 C,2"_." |!>(! !stemless!^G,,8!>)! A,,4 A,2 =G,2!p! | %151
w: ge- ni- tum non|fac- tum con- sub|
 (!stemless!^F,8 =F,6) F,2 | E,4 E,4 !stemless!E,8 | !stemless!A,,8 z8 | z4 E,4 E,4 E,2 E,2!p! | %155
w: stan- * ti-|a- lem Pa
-|tri,|qui pro- pter nos|
 A,,3 A, A,4 z8 | z4 E,4 E,4 D,2 D,2!mf! | (C,4 D,4) E,4 A,4!f! | (!stemless!G,8 !stemless!G,,8) | %159
w: ho- mi- nes|de- scen- dit, de-|scen- * dit de|coe- *|
 !stemless!C,8 z4 C,4!pp! | !stemless!C,8 !stemless!C,8 | =B,,3 B,, B,,4 z4 B,,4 | %162
w: lis. Et
|in- car-|na- tus est de|
 !stemless!C,8 D,4 E,4 | F,4 E,4 z4 E,2 E,2 | !stemless!D,8 !stemless!E,8 | %165
w: Spi- ri- tu|San
- cto ex Ma-|ri- a|
 D,3 D, !stemless!D,8 D,4 |!<(! !stemless!E,8 !stemless!^F,8!<)! | %167
w: vir- gi- ne et|ho- mo|
 G,3 G, !stemless!G,8 G,2 G,2!f! | F,6 F,2 !>!^F,6 F,2 | G,6 G,2 !>!^G,4 G,2 G,2 | %170
w: fac- tus est, cru- ci-|fix- us- e- ti-|am pro no- bis sub|
 A,4 =B,4 C4 (C,2 D,2) | .E,4 .E,4 z4!pp! (E,4 | F,4) D,4 z4!<(! (^C,4 | %173
w: Pon
- ti- o Pi- *|la- to, pas-|* sus, pas-|
 D,4)!<)!!>(! C,4 =C,4!>)! (A,,2 C,2) |!pp! !stemless!E,12 E,,4 | %175
w: * sus et se- *|pul- tus|
 !fermata!!stemless!A,,8 z2 A,2 A,2 A,2!f! | A,4 (G,2 F,2) G,4 F,2 E,2 | F,4 D,4 z8 | z16 | x16 | %180
w: est. Et
 re- sur-|rex- it _ ter- ti- a|di- e,|||
 z4 G,,4 G,3 G, G,4-!f! | G,2 ^F,2 G,2 A,2 B,6 B,2 |[K:F] (B,2 A,2) (G,2 ^F,2) G,4 D,4 | %183
w: et i- te rum|_ ven- tu- rus est, ven-|tu- * rus _ est cum|
 E,4 E,2 E,2 E,4 D,4 | D,4 D,4 z4 !>!D,4 | !>!C,4 !>!B,,4 !>!A,,4 !>!G,,4 | %186
w: glo- ri- a ju- di-|ca- re, vi-|vos et mor- tu-|
 F,,4 F,2 F,2 _G,4 F,4-!f! | F,4 F,4 F,4 F,4 | .B,,4 .B,4 z8 | z16 |[K:F] z8 z4 G,2 G,2!f! | %191
w: os, cu- jus re- gni|_ non e- rit|fi- nis.||qui ex|
 (C,4 D,2) _E,2 (F,4 G,2) A,2 | B,4 B,,2 B,,2 B,,4 B,,4 |!f! A,,6 B,,2 C,6 ^C,2 | %194
w: Pa
- * tre Fi- * li-|o- que pro- ce- dit,|qui lo- cu- tus|
 (D,2 E,2) F,2 G,2 A,4 F,4 | B,4 G,2 A,2 (B,4 B,,4) | A,,4 A,,4!>(! A,4!>)! G,4 || %197
w: est _ per pro- phe- tas,|per pro- * phe- *|tas. Et
 u- nam|
[K:D]!p! !stemless!F,8 E,4 D,4 | E,4 A,,4 D,4 z4 | z4 F,4 E,4 D,4!mf! | C,4!<(! A,,4 D,6 D,2!<)! | %201
w: san- ctam ca-|tho- li- cam|ec- cle- si-|am, con- fi- te-|
 D,4 F,4 E,4 E,4!f! | D,4 D,4 G,2 F,2 E,2 D,2 |!<(!!<(! C,4 D,4!<)!!<)!!>(! G,,4!>(! A,,4!>)!!>)! | %204
w: or u- num bap-|tis- ma in re- mis si-|o- nem pec- ca-|
 B,,4 B,,4 z4 B,2 B,2!f! | (^A,4 =A,4) ^G,4 =G,2 G,2 | F,4 ^E,4 F,4 F,4 | =E,4 D,4 (C,4 D,4) | %208
w: to- rum, et ex-|pe- * cto re- sur-|re- cti- o- nem|mor- tu- o- *|
 !stemless!A,,12 !>!A,4 | !>!A,4 !>!!stemless!G,8 G,4 | F,4 B,,8 E,4 | A,,6 A,,2 A,,8 | %212
w: rum. Et
|vi- tam ven-|tu- ri sae|cu- li. A-|
 B,,4 z4 (!stemless!G,,8 | !stemless!F,,8 G,,4 B,,4) | !fermata!!stemless!D,16 |] %215
w: men, A-||men.|
[K:F][M:3/2] z4 (F,4 A,4!pp! | !stemless!E,8 G,4) | !stemless!F,12 | !stemless!C,12 | D,4 (D4 C4 | %220
w: San- *||ctus,|San
-|ctus, San- *|
 B,4 A,4) G,4 | !stemless!C,12- | C,4 C,4 C,4 | !stemless!D,8 G,,4 | C,6 C,2 C,4 | %225
w: * * ctus|Do-|* mi- nus|De
- us|Sa- ba- oth.|
!mf! B,4 (C,2 E,2) (G,2 B,2) | B,4 A,4 A,4 | (G,4 C4 C,4) |!<(! !stemless!F,12!<)! | %229
w: Ple- ni _ sunt _|coe- li et|ter- * *|ra,|
!f! B,4 (C,2 E,2) (G,2 B,2) | B,4 !stemless!A,8 | (!stemless!G,8 C,4 | F,4) F,4 F,4 | B,,4 B,4 x4 | %234
w: coe- li _ et _|ter- ra|glo- *|* ri- a|tu- a,-|
!ff! G,,4 A,,4 B,,4 | C,4 C,4 z4 | z12 | z4 z4 C4!p! | (!stemless!=B,12 | C4) C,4 z2 C2!f! | %240
w: glo- ri- a|tu- a.||o-|san-|* na, o-|
 (C2 B,2 A,2 G,2 F,2 E,2 | D,4 G,6 F,2"_cresc." | E,4) A,4 G,4 | (!stemless!C,8- C,2 ^C,2 | %244
w: san- * * * * *||* na, o-|san- * *|
 D,2 E,2 F,2 G,2 A,2 =B,,2) | !>!C,4 !>!C,4 !>!C,4 | !stemless!C,12 | !stemless!F,,8 z4 | %248
w: |na in ex-|cel-|sis,|
 z4 A,,4 B,,4!p! | (!stemless!D,8 _D,4 | !stemless!C,12) | .!fermata!!stemless!F,,12 |] %252
w: in ex-|cel- *||sis.|
[K:Bb][M:4/2]!p! (!stemless!F,8 D,4) B,,4"^dolce" | A,,4 A,,4 z4!<(! E,4!<)! | %254
w: Be
- * ne-|di- ctus qui|
!>(! D,4!>)! D,4 z4 D,4 |!<(! C,4 C,2!<)! C,2!>(! F,4 F,4!>)! | !stemless!^F,8 z8 | %257
w: ve- nit in|no- mi- ne Do- mi-|ni,|
!f! !stemless!G,,12 B,,4 | !stemless!D,12 C,4 | !stemless!B,,12 D,4 | ^C,4 !stemless!C,8 C,4!p! | %261
w: be- ne-|di- ctus,|be- ne-|dic- tus, qui|
 !stemless!D,8!<(! D,4 ^G,,4!<)! | !stemless!A,,8!>(! B,,4 =B,,4!>)! | %263
w: ve- nit in|no- mi- ne|
!<(! !stemless!C,8 !stemless!B,8!<)! |!f! (A,6 G,2) F,4 E,4 | (!stemless!D,8 E,4 G,4) | %266
w: Do
- mi-|ni, _ be- ne-|di- * *|
 C,4 z4 C,4 C,4!f! | (C,4 F,2 E,2) (D,2 C,2) (B,,2 A,,2) | (B,,6 D,2) G,4 C,4 | %269
w: ctus, be- ne-|di- * * ctus _ qui _|ve- * nit, qui|
 (!stemless!F,8 !stemless!A,,8) | D,4 z4 !stemless!C,8 | (F,4 E,4) D,4 E,4 | !stemless!F,12 F,4 | %273
w: ve- *|nit in|no- * mi- ne|Do
- mi-|
 F,,4 F,8 F,4 | F,4 F,4 !stemless!E,8 |!<(! D,4 F,2 _A,2!<)! _C4 B,2 A,2 | %276
w: ni, be- ne-|dic- tus qui|ve- nit in no- mi- ne|
 !stemless!_G,8 !stemless!F,8 | E,4 (=G,2 B,2) _D4 C2 B,2!f! | !stemless!A,8 !stemless!=D,8 | %279
w: Do- mi-|ni, in _ no- mi- ne|Do- mi-|
 G,4 G,,4 A,,4 C,2 C,2 |"^dim." (D,6 E,2 F,4) ^F,4 | G,4 z2 G,2 G,4 G,2 G,2 | ((!stemless!F,16 | %283
w: ni, in no- mi- ne|Do
- * * mi-|ni, qui ve- nit in|no-|
 F,2) =E,2) F,2 F,2 F,4 F,,4 | B,,4 z2 B,,2 B,,4 B,,4!f! | z4 B,,2 B,,2 B,,4 B,,4!mf! | %286
w: * * mi- ne Do
- mi-|ni. O- san- na|in ex- cel- sis,|
 z4 !stemless!B,,8 B,,4!p! | !stemless!B,,16 | !fermata!!stemless!B,,16 |][K:F][M:3/2] z12 | z12 | %291
w: in ex-|cel-|sis.|||
 z12 | z12 | z12 | z4"^dolce" C,4 E,4!mf!"_dolce" | G,4 A,6 A,2 | E,4 F,4 ^F,4 | (G,4 E,4) A,4 | %298
w: |||Ag- nus|De
- i qui|tol- lis pec-|ca- * ta|
 (!stemless!G,8 ^C,4) |!<(! !stemless!D,12!<)! |!f! !stemless!A,,8 C,4 | F,4 D,4 B,,4 | %302
w: mun- *|di,|mi- se-|re- * re|
 (!stemless!F,,8 A,,4 | D,4 !stemless!G,,8) | !stemless!A,,8 z4 | z4 !>!D,4 !>!F,4!f! | %306
w: no- *||bis,|A
- gnus|
 !>!A,4 B,6 B,2 | F,4 G,6 ^G,2 | (A,2 =G,2 F,2 E,2) D,4 | (C,4 B,,2 A,,2 G,,2 ^F,,2) | %310
w: De- i qui|tol- lis pec-|ca- * * * ta|mun- * * * *|
 !stemless!G,,8 z4 | z12 | z4 B,4 B,4!p! | A,4 !stemless!D,8 | z4 G,4 G,4 | %315
w: di,||mi- se-|re- re,|mi- se-|
!<(! (^F,4 !stemless!=F,8)!<)! | E,4 z4 z4 | z12 | z4 C4 C4!mf! | =B,4 !stemless!E,8 | %320
w: re- *|re,||mi- se-|re- re,|
 (A,6 G,2) (F,2 E,2) | (D,4 G,4 G,,4) | A,,4 A,,4 C,4!f! | (!stemless!D,8 E,2 ^F,2) | %324
w: mi- * se- *|re- * *|re, A
- gnus|De- * *|
 !stemless!G,8 z2 B,,2 | C,6 D,2 E,4 | (F,6 G,2) A,4!ff! | (!stemless!=B,8 =B,,4) | %328
w: i qui|tol- lis pec-|ca- * ta|mun- *|
 !stemless!C,12 |!>(! z4 C,4 B,4!>)!!p! | (A,4 E,4) G,4 | F,4 !stemless!C,8 | z4 A,4 E,4 | %333
w: di:|Do
- na|no- * bis|pa- cem,|do- na|
 (F,6 A,2) (C2 G,2) | (A,2 B,2) !stemless!C8 | z4 (F,2 G,2) (_E,2 F,2)!mf! | (!stemless!D,8 A,,4) | %337
w: no- * bis _|pa- * cem,|do- * na _|pa- *|
 !stemless!B,,8 z4 | z2 (B,2 C2 A,2) (F,2 E,2)!f! | !stemless!F,8 _E,4 | !stemless!D,8 C,4 | %341
w: cem,|do- * * na _|no- bis|pa- cem,|
 !stemless!=B,,8 B,,4 | (C,2 E,2) G,4 x4 | z4 G,,4 F,4!f! | (E,4 =B,,4) D,4 | (C,4 E,4) G,4 | %346
w: do- na|pa- * cem,|do- na|no- * bis|pa- * cem,|
 !stemless!A,8 E,4- | E,2 (G,2 F,2 E,2) (D,2 ^C,2) | !stemless!D,8 A,,4 | !stemless!B,,8 C,4 | %350
w: do- na,|_ do- * * na _|no- bis|pa- cem,|
 !stemless!D,8 G,,4 | (!stemless!C,12-!p! | !stemless!C,12- | !stemless!C,12) | !stemless!C,12 | %355
w: do- na|pa-|||cem,|
 z4 (C,2 D,2) (B,,2 C,2)!f! | (A,,6 B,,2) A,,4 | z4 (D,2 E,2) (C,2 D,2) | %358
w: do- * na _|no- * bis,|no- * bis _|
!>(! (=B,,6 C,2) B,,4!>)! |!<(! z4 C,4 _B,,4!p! | (A,,4!<)! D,4)!>(! G,,4!>)! | %361
w: pa- * cem,|do- na|no- * bis|
 !stemless!C,12-!p! | !stemless!C,12 | !stemless!F,,8 z4 | !stemless!B,,12!pp! | %365
w: pa-||cem,|do-|
 !stemless!F,,8 z4 | !stemless!B,,12 | !fermata!!stemless!F,,12 |] %368
w: na|pa-|cem.|

